public/illustrations/_pills.svg

<svg width="131" height="181" viewBox="0 0 131 181" fill="none" xmlns="http://www.w3.org/2000/svg">
<path d="M56.7679 163.188C52.6619 166.728 48.9807 169.984 45.1578 172.958C33.123 182.019 19.3891 179.329 10.3275 170.975C4.52248 165.595 0.841229 158.374 0.133296 150.445C-0.574637 142.517 1.54916 134.73 6.22151 128.358C14.5751 117.173 24.3446 106.979 33.9725 96.9261C43.6004 86.8735 54.3609 76.8207 64.4136 66.9096C65.4047 65.9185 66.3958 64.9277 67.5285 63.6535C59.1749 55.4415 55.2105 45.5304 56.06 33.9204C56.7679 24.8589 60.8739 16.3637 67.5285 10.1339C73.6167 4.18728 81.5456 0.647491 90.0408 0.0811472C98.536 -0.485197 106.89 1.92197 113.827 7.01907C128.977 18.3459 131.526 36.1856 121.473 56.4324C124.446 62.0959 127.42 67.0513 129.402 72.29C130.818 75.5465 131.242 79.086 130.676 82.4841C130.11 85.8822 128.835 89.2805 126.712 91.9706C122.323 97.6341 117.792 103.156 113.261 108.819C112.411 109.952 111.42 110.801 110.288 112.076C111.562 112.925 112.411 113.775 113.261 114.341C120.482 119.155 123.88 125.951 124.305 134.446C124.588 140.959 125.013 147.472 125.296 153.985C125.579 159.932 124.022 165.312 119.066 168.852C101.651 181.594 83.103 183.577 63.4225 174.94C61.7234 174.09 60.4492 172.674 59.7413 170.975C58.6086 168.427 57.6174 165.737 56.7679 163.047V163.188ZM52.0956 93.1031C52.5203 93.3862 52.8035 93.8111 53.0867 93.9527C61.2987 96.5013 68.378 101.881 72.9088 109.102C73.4751 109.527 74.0415 109.81 74.7494 110.093C75.4573 110.235 76.0237 110.235 76.7316 110.093C83.5278 107.828 90.8903 107.12 97.9696 108.111H99.5271C100.093 107.97 100.518 107.687 100.943 107.403C105.474 102.731 110.288 98.2001 114.394 93.1031C117.509 89.4218 120.623 85.5992 120.623 80.2189C120.623 71.4406 116.517 65.3523 108.589 61.671C100.235 57.9898 91.5982 55.5828 83.9525 62.379C73.192 71.8652 62.9977 82.0594 52.6619 92.112C52.3787 92.5368 52.0956 92.9617 51.954 93.3865L52.0956 93.1031ZM10.0444 146.764C10.3275 149.171 10.6107 151.578 11.177 153.985C14.8583 167.86 30.9992 173.241 40.7686 164.321C44.1667 161.348 47.2816 158.233 50.6797 155.259C53.7946 152.569 54.361 149.03 53.653 145.348C51.8124 134.446 55.2105 125.385 63.2809 118.022C65.4047 116.182 64.9799 114.907 63.7057 112.925C59.7412 106.837 53.5114 104.288 46.9985 102.023C44.4499 101.174 42.7509 101.457 40.9102 103.439C32.8398 112.5 24.6278 121.279 16.5573 130.199C12.3098 134.73 10.0444 140.676 10.0444 146.764ZM72.2009 20.0449L117.509 38.8759C120.623 29.2481 114.111 17.213 103.633 12.116C93.1557 7.01886 78.8554 10.5584 72.2009 20.1863V20.0449ZM64.4136 143.366C68.6612 153.702 82.5367 158.233 95.9874 154.41C106.89 151.295 115.243 142.517 113.827 134.73L64.272 143.366H64.4136ZM74.4662 56.4324C79.1386 54.0255 83.2446 51.0521 87.7754 49.6362C94.9963 47.2293 102.359 48.3621 109.297 51.1938C112.695 52.6097 113.969 51.3353 114.818 47.9373L67.6701 28.3983C65.6879 33.2123 65.4047 38.4509 66.5374 43.548C67.6701 48.6451 70.5018 53.0344 74.4662 56.4324ZM64.6968 133.597L111.42 125.526C104.058 117.739 95.5627 116.607 86.6427 117.739C75.7405 119.013 66.2542 126.093 64.6968 133.738V133.597ZM66.679 160.781C66.679 163.896 66.679 166.445 69.7939 167.577C85.51 173.241 100.235 171.542 113.827 161.206C116.093 159.507 116.517 157.525 115.102 154.835C100.235 166.303 84.2357 168.427 66.8206 160.64L66.679 160.781Z" fill="#102185"/>
</svg>

<svg xmlns="http://www.w3.org/2000/svg" width="131" height="181" fill="none" viewBox="0 0 131 181"><path fill="#102185" d="M56.768 163.188c-4.106 3.54-7.787 6.796-11.61 9.77-12.035 9.061-25.769 6.371-34.83-1.983-5.806-5.38-9.487-12.601-10.195-20.53-.708-7.928 1.416-15.715 6.089-22.087 8.353-11.185 18.123-21.379 27.75-31.432C43.6 86.874 54.361 76.821 64.415 66.91c.99-.992 1.982-1.982 3.114-3.256C59.175 55.44 55.21 45.53 56.06 33.92c.708-9.061 4.814-17.556 11.468-23.786A35.48 35.48 0 0 1 90.042.08c8.495-.566 16.849 1.841 23.786 6.938 15.15 11.327 17.699 29.167 7.646 49.413 2.973 5.664 5.947 10.62 7.929 15.858a18.1 18.1 0 0 1 1.274 10.194c-.566 3.398-1.841 6.797-3.964 9.487-4.389 5.663-8.92 11.185-13.451 16.848-.85 1.133-1.841 1.982-2.973 3.257 1.274.849 2.123 1.699 2.973 2.265 7.221 4.814 10.619 11.61 11.044 20.105.283 6.513.708 13.026.991 19.539.283 5.947-1.274 11.327-6.23 14.867-17.415 12.742-35.963 14.725-55.643 6.088a7.73 7.73 0 0 1-3.682-3.965c-1.132-2.548-2.124-5.238-2.973-7.928zm-4.672-70.085c.424.283.708.708.99.85C61.3 96.5 68.379 101.88 72.91 109.102c.566.425 1.132.708 1.84.991a4.7 4.7 0 0 0 1.983 0c6.796-2.265 14.158-2.973 21.238-1.982h1.557c.566-.141.991-.424 1.416-.708 4.531-4.672 9.345-9.203 13.451-14.3 3.115-3.681 6.229-7.504 6.229-12.884 0-8.778-4.106-14.867-12.034-18.548-8.354-3.681-16.99-6.088-24.636.708-10.761 9.486-20.955 19.68-31.291 29.733-.283.425-.566.85-.708 1.275zm-42.052 53.661c.284 2.407.567 4.814 1.133 7.221 3.681 13.875 19.822 19.256 29.592 10.336 3.398-2.973 6.513-6.088 9.91-9.062 3.116-2.69 3.682-6.229 2.974-9.911-1.84-10.902 1.558-19.963 9.628-27.326 2.124-1.84 1.699-3.115.425-5.097-3.965-6.088-10.195-8.637-16.708-10.902-2.548-.849-4.247-.566-6.088 1.416-8.07 9.061-16.282 17.84-24.353 26.76-4.247 4.531-6.513 10.477-6.513 16.565m62.157-126.72 45.308 18.832c3.114-9.628-3.398-21.663-13.876-26.76s-24.778-1.558-31.432 8.07zm-7.787 123.322c4.247 10.336 18.123 14.867 31.573 11.044 10.903-3.115 19.256-11.893 17.84-19.68l-49.555 8.636zm10.052-86.934c4.673-2.407 8.779-5.38 13.31-6.796 7.22-2.407 14.583-1.274 21.521 1.558 3.398 1.416 4.672.141 5.521-3.257L67.67 28.398c-1.982 4.814-2.265 10.053-1.133 15.15s3.965 9.486 7.93 12.884m-9.77 77.165 46.724-8.071c-7.362-7.787-15.857-8.919-24.777-7.787-10.903 1.274-20.389 8.354-21.946 15.999zm1.983 27.184c0 3.115 0 5.664 3.115 6.796 15.716 5.664 30.441 3.965 44.033-6.371 2.266-1.699 2.69-3.681 1.275-6.371-14.867 11.468-30.866 13.592-48.281 5.805z"/></svg>
